src/assets/img/icons/duotone-icons/Devices/Server.svg

<?xml version="1.0" encoding="UTF-8"?>
<svg width="24px" height="24px" viewBox="0 0 24 24" version="1.1" xmlns="http://www.w3.org/2000/svg" xmlns:xlink="http://www.w3.org/1999/xlink">
    <!-- Generator: Sketch 52.2 (67145) - http://www.bohemiancoding.com/sketch -->
    <title>Stockholm-icons / Devices / Server</title>
    <desc>Created with Sketch.</desc>
    <g id="Stockholm-icons-/-Devices-/-Server" stroke="none" stroke-width="1" fill="none" fill-rule="evenodd">
        <rect id="bound" x="0" y="0" width="24" height="24"></rect>
        <path d="M5,2 L19,2 C20.1045695,2 21,2.8954305 21,4 L21,6 C21,7.1045695 20.1045695,8 19,8 L5,8 C3.8954305,8 3,7.1045695 3,6 L3,4 C3,2.8954305 3.8954305,2 5,2 Z M11,4 C10.4477153,4 10,4.44771525 10,5 C10,5.55228475 10.4477153,6 11,6 L16,6 C16.5522847,6 17,5.55228475 17,5 C17,4.44771525 16.5522847,4 16,4 L11,4 Z M7,6 C7.55228475,6 8,5.55228475 8,5 C8,4.44771525 7.55228475,4 7,4 C6.44771525,4 6,4.44771525 6,5 C6,5.55228475 6.44771525,6 7,6 Z" id="Combined-Shape" fill="#335EEA" opacity="0.3"></path>
        <path d="M5,9 L19,9 C20.1045695,9 21,9.8954305 21,11 L21,13 C21,14.1045695 20.1045695,15 19,15 L5,15 C3.8954305,15 3,14.1045695 3,13 L3,11 C3,9.8954305 3.8954305,9 5,9 Z M11,11 C10.4477153,11 10,11.4477153 10,12 C10,12.5522847 10.4477153,13 11,13 L16,13 C16.5522847,13 17,12.5522847 17,12 C17,11.4477153 16.5522847,11 16,11 L11,11 Z M7,13 C7.55228475,13 8,12.5522847 8,12 C8,11.4477153 7.55228475,11 7,11 C6.44771525,11 6,11.4477153 6,12 C6,12.5522847 6.44771525,13 7,13 Z" id="Combined-Shape-Copy" fill="#335EEA"></path>
        <path d="M5,16 L19,16 C20.1045695,16 21,16.8954305 21,18 L21,20 C21,21.1045695 20.1045695,22 19,22 L5,22 C3.8954305,22 3,21.1045695 3,20 L3,18 C3,16.8954305 3.8954305,16 5,16 Z M11,18 C10.4477153,18 10,18.4477153 10,19 C10,19.5522847 10.4477153,20 11,20 L16,20 C16.5522847,20 17,19.5522847 17,19 C17,18.4477153 16.5522847,18 16,18 L11,18 Z M7,20 C7.55228475,20 8,19.5522847 8,19 C8,18.4477153 7.55228475,18 7,18 C6.44771525,18 6,18.4477153 6,19 C6,19.5522847 6.44771525,20 7,20 Z" id="Combined-Shape-Copy-2" fill="#335EEA"></path>
    </g>
</svg>

<svg width="24" height="24" viewBox="0 0 24 24" xmlns="http://www.w3.org/2000/svg"><g fill="none" fill-rule="evenodd"><path d="M0 0h24v24H0z"/><path d="M5 2h14a2 2 0 012 2v2a2 2 0 01-2 2H5a2 2 0 01-2-2V4a2 2 0 012-2zm6 2a1 1 0 000 2h5a1 1 0 000-2h-5zM7 6a1 1 0 100-2 1 1 0 000 2z" fill="#335EEA" opacity=".3"/><path d="M5 9h14a2 2 0 012 2v2a2 2 0 01-2 2H5a2 2 0 01-2-2v-2a2 2 0 012-2zm6 2a1 1 0 000 2h5a1 1 0 000-2h-5zm-4 2a1 1 0 100-2 1 1 0 000 2zM5 16h14a2 2 0 012 2v2a2 2 0 01-2 2H5a2 2 0 01-2-2v-2a2 2 0 012-2zm6 2a1 1 0 000 2h5a1 1 0 000-2h-5zm-4 2a1 1 0 100-2 1 1 0 000 2z" fill="#335EEA"/></g></svg>
